X:1
T: William Gibson Craig, M.P.
C:William Marshall
R:Strathspey
Q: 128
K:Eb
M:4/4
L:1/16
|:GF|E3G, B,3G, B,E3 G3E|B3G AGFE F4 F2GF|E3G, B,3G, GE3 e3c|B3G BAGF E4 E2GF|
E3G, B,3G, B,E3 G3E|B3G AGFE F4 F2GF|E3G, B,3G, GE3 e3c|B3G BAGF E4 E2cd|
e3E GB3 efga b3e|cf3 f3e ed3 c3d|e3E c3E GB3 e3G|FEDC B,CDB, E4 E2cd|
e3E GB3 efga b3e|cf3 f3e ed3 c3d|e3f fedc BAGF E3B,|CA,3 B,3D E4 E2:|
